X: 199
T: Lord Murry's Choice
N: The index has "Lord", while the tune page has "L.d" with the 'd' above the dot.
B: 204 Favourite Country Dances
N: Published by Straight & Skillern, London ca.1775
F: http://imslp.org/wiki/204_Favourite_Country_Dances_(Various) p.100 #199
Z: 2014 John Chambers <jc:trillian.mit.edu>
M: C|
L: 1/8
K: G
% - - - - - - - - - - - - - - - - - - - - - - - - -
|:\
g4 d<BA<G | D<GG>A {c}B2A>G |\
Tg4 d<B A<G | A2A>B A4 |\
Tg4 d<BA<G | D<GG>A {c}B2A<G |\
edcB cBAG | D<GG>A {c}B2A<G :|
|:\
c3d edcB | B3c dcBA |\
A3B cBAG | F3G A/G/F/E/ D2 |\
gfed edcB | c/B/c/d/ eE [f2F2][eE][dD] |\
[gG][fF][eE][dD] [eE][dD][cC][BB,] | [GG,2]GGA {c}B2A<G :|
% - - - - - - - - - - - - - - - - - - - - - - - - -
%%begintext align
%% First Cu. figure on their own Sides & cast off .| the
%% 2d Cu. cast off one Cu. lead thro the 3d Cu. & cast up
%% one Cu. .|. the Man hey with the 3d Cu. the Wo. at the same
%% time hands 3 round with the 2d Cu. then the Man hey at
%% [top] & the Wo. hands 3 at bott: .|: lead outsides & turn Partners :|:
%%endtext

%%sep 1 1 500
%%sep 1 1 500
